Yaru++/apps/scalable/pcloud.svg

<svg height="256" viewBox="0 0 256 256" width="256" xmlns="http://www.w3.org/2000/svg" xmlns:xlink="http://www.w3.org/1999/xlink">
  <filter id="filter842" color-interpolation-filters="sRGB" height="1.031184" width="1.019506" x="-.009753" y="-.015592">
    <feGaussianBlur stdDeviation=".9265482"/>
  </filter>
  <filter id="filter872" color-interpolation-filters="sRGB" height="1.124736" width="1.078025" x="-.039013" y="-.062368">
    <feGaussianBlur stdDeviation="3.7061928"/>
  </filter>
  <path d="m126.509 39.863721a71.250001 71.309424 0 0 0 -71.249999 71.309639s-1.22461-4.56907-1.22461-10.88233c0-7.573054 1.572686-18.845064 5.975935-26.627295-26.789998 3.503668-47.501326 26.374575-47.501326 54.147215 0 30.19241 24.459078 54.67205 54.626327 54.67205h59.373673 71.25 4.75133c20.98549 0 37.99867-17.02946 37.99867-38.03247 0-10.74395-4.4688-20.42752-11.63179-27.33503-4.2085 9.10384-14.28461 13.0731-17.04911 13.0731h-.0338c8.68589-5.46037 14.46469-15.11985 14.46469-26.1462 0-17.066729-13.82117-30.90151-30.87367-30.90151-1.00224 0-1.39716-.09507-2.37566 0 .0665.125981.0635.122623.0457.08946 4.37553 7.78287 5.93021 19.510841 5.93021 27.06068 0 6.31326-1.2266 10.88233-1.2266 10.88233a71.250001 71.309424 0 0 0 -71.25-71.30964z" fill="#000202" filter="url(#filter872)" opacity=".1" stroke-width="4.751981"/>
  <path d="m126.509 39.863721a71.250001 71.309424 0 0 0 -71.249999 71.309639s-1.22461-4.56907-1.22461-10.88233c0-7.573054 1.572686-18.845064 5.975935-26.627295-26.789998 3.503668-47.501326 26.374575-47.501326 54.147215 0 30.19241 24.459078 54.67205 54.626327 54.67205h59.373673 71.25 4.75133c20.98549 0 37.99867-17.02946 37.99867-38.03247 0-10.74395-4.4688-20.42752-11.63179-27.33503-4.2085 9.10384-14.28461 13.0731-17.04911 13.0731h-.0338c8.68589-5.46037 14.46469-15.11985 14.46469-26.1462 0-17.066729-13.82117-30.90151-30.87367-30.90151-1.00224 0-1.39716-.09507-2.37566 0 .0665.125981.0635.122623.0457.08946 4.37553 7.78287 5.93021 19.510841 5.93021 27.06068 0 6.31326-1.2266 10.88233-1.2266 10.88233a71.250001 71.309424 0 0 0 -71.25-71.30964z" fill="#000202" filter="url(#filter842)" opacity=".1" stroke-width="4.751981"/>
  <path d="m126.509 39.863721a71.250001 71.309424 0 0 0 -71.249999 71.309639s-1.22461-4.56907-1.22461-10.88233c0-7.573054 1.572686-18.845064 5.975935-26.627295-26.789998 3.503668-47.501326 26.374575-47.501326 54.147215 0 30.19241 24.459078 54.67205 54.626327 54.67205h59.373673 71.25 4.75133c20.98549 0 37.99867-17.02946 37.99867-38.03247 0-10.74395-4.4688-20.42752-11.63179-27.33503-4.2085 9.10384-14.28461 13.0731-17.04911 13.0731h-.0338c8.68589-5.46037 14.46469-15.11985 14.46469-26.1462 0-17.066729-13.82117-30.90151-30.87367-30.90151-1.00224 0-1.39716-.09507-2.37566 0 .0665.125981.0635.122623.0457.08946 4.37553 7.78287 5.93021 19.510841 5.93021 27.06068 0 6.31326-1.2266 10.88233-1.2266 10.88233a71.250001 71.309424 0 0 0 -71.25-71.30964z" fill="#000202" opacity=".1" stroke-width="4.751981"/>
  <g stroke-width="4.668612">
    <path d="m126.20898 41.166016a70 70.05838 0 0 0 -69.999996 70.058594s-1.203125-4.48891-1.203125-10.69141c0-7.440197 1.545095-18.514453 5.871094-26.160153-26.319998 3.4422-46.667969 25.911863-46.667969 53.197263 0 29.66272 24.029971 53.71289 53.667969 53.71289h58.332027 70 4.66797c20.61732 0 37.33203-16.7307 37.33203-37.36523 0-10.55546-4.3904-20.06915-11.42773-26.85547-4.13466 8.94412-14.034 12.84375-16.75 12.84375h-.0332c8.53351-5.36458 14.21093-14.85459 14.21093-25.6875 0-16.76731-13.5787-30.359375-30.33203-30.359375-.98466 0-1.37265-.0934-2.33398 0 .06533.12377.06238.120471.04492.087891 4.29876 7.646328 5.82617 19.168545 5.82617 26.585934 0 6.2025-1.20508 10.69141-1.20508 10.69141a70 70.05838 0 0 0 -70-70.058594z" fill="#00bcd4"/>
    <path d="m126.20951 167.27094c-30.879331 0-55.999996-25.14161-55.999996-56.0467s25.120665-56.046707 55.999996-56.046707c30.87933 0 56 25.141617 56 56.046707s-25.12067 56.0467-56 56.0467zm0-102.75229c-25.732 0-46.666664 20.95213-46.666664 46.70559s20.934664 46.70559 46.666664 46.70559 46.66666-20.95213 46.66666-46.70559-20.93466-46.70559-46.66666-46.70559z" fill="#fff"/>
    <path d="m109.87617 143.91815c-3.86866 0-6.99999-3.13862-6.99999-7.00584v-46.70559c0-3.86722 3.13133-7.00583 6.99999-7.00583h23.33334c11.578 0 21 9.42985 21 21.01751s-9.422 21.01751-21 21.01751h-16.33334v11.6764c0 3.86722-3.13133 7.00584-7 7.00584zm7-32.69391h16.33334c3.85933 0 7-3.14329 7-7.00584s-3.14067-7.00584-7-7.00584h-16.33334z" fill="#fff"/>
    <path d="m126.20898 41.166016a70 70.05838 0 0 0 -69.999996 70.058594s-1.054462-3.999-1.179687-9.63867c-.005068.31018-.023438.64835-.023438.94726 0 6.2025 1.203125 10.69141 1.203125 10.69141a70 70.05838 0 0 1 69.999996-70.058594 70 70.05838 0 0 1 70 70.058594s1.20508-4.48891 1.20508-10.69141c0-.30354-.01823-.652-.02344-.96875-.12318 5.6511-1.18164 9.66016-1.18164 9.66016a70 70.05838 0 0 0 -70-70.058594zm66.49219 32.658203c-.34024-.011675-.67754-.011544-1.1582.035156.06533.12377.06238.120471.04492.087891.33851.60212.65424 1.234567.95899 1.880859.38762.009001.77216.03125 1.33007.03125 16.37245 0 29.70461 12.982905 30.30274 29.222655.00808-.28801.02929-.57329.02929-.86328 0-16.76731-13.5787-30.359375-30.33203-30.359375-.49233 0-.83553-.023481-1.17578-.035156zm-131.824217.548828c-26.319998 3.4422-46.667969 25.911863-46.667969 53.197263 0 .31903.017902.63347.023438.95117.508046-26.4265 20.097181-48.110573 45.541016-51.978511.347842-.745402.710752-1.475758 1.103515-2.169922zm165.904297 42.689453c-2.88821 6.2478-8.58297 10.02712-12.68359 11.74219-1.27629 1.14243-2.64281 2.18574-4.09961 3.10156h.0332c2.716 0 12.61534-3.89963 16.75-12.84375 6.81545 6.57235 11.1359 15.70587 11.40234 25.86328.00892-.33599.02539-.66967.02539-1.00781 0-10.55546-4.3904-20.06915-11.42773-26.85547z" fill="#fefefe" opacity=".3"/>
    <path d="m192.54688 73.828125c-.29651-.006885-.58727-.00923-1.00391.03125.06533.12377.06238.120471.04492.087891 4.12284 7.333416 5.68084 18.193943 5.80273 25.617187.00753-.345018.02344-.674356.02344-1.03125 0-6.833296-1.30193-17.144106-4.86718-24.705078zm-131.669927.544922c-.370544.048461-.735379.113958-1.103515.169922-3.48338 7.464647-4.767579 17.225543-4.767579 23.990234 0 .364333.015623.700789.023438 1.052735.121076-7.410612 1.695455-17.874358 5.847656-25.212891zm163.302737 28.708983c-.29386 10.47101-5.87657 19.60325-14.18164 24.82422h.0332c.81877 0 2.29673-.3614 4.06641-1.10156 6.19983-5.5496 10.11132-13.60237 10.11132-22.58594 0-.3812-.01538-.75892-.02929-1.13672zm-209.947268 23.43945c-.00673.35005-.023438.69716-.023438 1.04883 0 29.66272 24.029971 53.71289 53.667969 53.71289h58.332027 70 4.66797c20.61732 0 37.33203-16.7307 37.33203-37.36523 0-.33281-.01671-.66151-.02539-.99219-.53545 20.16715-17.02718 36.35742-37.30664 36.35742h-4.66797-70-58.332027c-29.319239 0-53.13531-23.53956-53.644531-52.76172z" opacity=".2"/>
  </g>
</svg>

<?xml version="1.0" encoding="UTF-8" standalone="no"?>
<!-- Generator: Adobe Illustrator 22.1.0, SVG Export Plug-In . SVG Version: 6.00 Build 0)  -->

<svg
   xmlns:dc="http://purl.org/dc/elements/1.1/"
   xmlns:cc="http://creativecommons.org/ns#"
   xmlns:rdf="http://www.w3.org/1999/02/22-rdf-syntax-ns#"
   xmlns:svg="http://www.w3.org/2000/svg"
   xmlns="http://www.w3.org/2000/svg"
   xmlns:sodipodi="http://sodipodi.sourceforge.net/DTD/sodipodi-0.dtd"
   xmlns:inkscape="http://www.inkscape.org/namespaces/inkscape"
   version="1.1"
   id="Layer_1"
   x="0px"
   y="0px"
   viewBox="0 0 256 256"
   xml:space="preserve"
   width="256"
   height="256"
   sodipodi:docname="pcloud.svg"
   inkscape:version="0.92.4 (5da689c313, 2019-01-14)"><metadata
   id="metadata21"><rdf:RDF><cc:Work
       rdf:about=""><dc:format>image/svg+xml</dc:format><dc:type
         rdf:resource="http://purl.org/dc/dcmitype/StillImage" /><dc:title></dc:title></cc:Work></rdf:RDF></metadata><defs
   id="defs19"><filter
     inkscape:collect="always"
     style="color-interpolation-filters:sRGB"
     id="filter842"
     x="-0.0097531389"
     width="1.0195063"
     y="-0.015591971"
     height="1.0311839"><feGaussianBlur
       inkscape:collect="always"
       stdDeviation="0.9265482"
       id="feGaussianBlur844" /></filter><filter
     inkscape:collect="always"
     style="color-interpolation-filters:sRGB"
     id="filter872"
     x="-0.039012556"
     width="1.0780251"
     y="-0.062367884"
     height="1.1247358"><feGaussianBlur
       inkscape:collect="always"
       stdDeviation="3.7061928"
       id="feGaussianBlur874" /></filter></defs><sodipodi:namedview
   pagecolor="#ffffff"
   bordercolor="#666666"
   borderopacity="1"
   objecttolerance="10"
   gridtolerance="10"
   guidetolerance="10"
   inkscape:pageopacity="0"
   inkscape:pageshadow="2"
   inkscape:window-width="1920"
   inkscape:window-height="1016"
   id="namedview17"
   showgrid="false"
   inkscape:zoom="3.2773438"
   inkscape:cx="128"
   inkscape:cy="128"
   inkscape:window-x="0"
   inkscape:window-y="27"
   inkscape:window-maximized="1"
   inkscape:current-layer="Layer_1" />
<path
   id="path846"
   d="M 126.509,39.863721 A 71.250001,71.309424 0 0 0 55.259001,111.17336 c 0,0 -1.22461,-4.56907 -1.22461,-10.88233 0,-7.573054 1.572686,-18.845064 5.975935,-26.627295 C 33.220328,77.167403 12.509,100.03831 12.509,127.81095 c 0,30.19241 24.459078,54.67205 54.626327,54.67205 h 59.373673 71.25 4.75133 c 20.98549,0 37.99867,-17.02946 37.99867,-38.03247 0,-10.74395 -4.4688,-20.42752 -11.63179,-27.33503 -4.2085,9.10384 -14.28461,13.0731 -17.04911,13.0731 h -0.0338 c 8.68589,-5.46037 14.46469,-15.11985 14.46469,-26.1462 0,-17.066729 -13.82117,-30.90151 -30.87367,-30.90151 -1.00224,0 -1.39716,-0.09507 -2.37566,0 0.0665,0.125981 0.0635,0.122623 0.0457,0.08946 4.37553,7.78287 5.93021,19.510841 5.93021,27.06068 0,6.31326 -1.2266,10.88233 -1.2266,10.88233 a 71.250001,71.309424 0 0 0 -71.25,-71.30964 z"
   style="fill:#000202;fill-opacity:1;stroke-width:4.75198078;opacity:0.1;filter:url(#filter872)"
   inkscape:connector-curvature="0" /><path
   inkscape:connector-curvature="0"
   style="fill:#000202;fill-opacity:1;stroke-width:4.75198078;opacity:0.1;filter:url(#filter842)"
   d="M 126.509,39.863721 A 71.250001,71.309424 0 0 0 55.259001,111.17336 c 0,0 -1.22461,-4.56907 -1.22461,-10.88233 0,-7.573054 1.572686,-18.845064 5.975935,-26.627295 C 33.220328,77.167403 12.509,100.03831 12.509,127.81095 c 0,30.19241 24.459078,54.67205 54.626327,54.67205 h 59.373673 71.25 4.75133 c 20.98549,0 37.99867,-17.02946 37.99867,-38.03247 0,-10.74395 -4.4688,-20.42752 -11.63179,-27.33503 -4.2085,9.10384 -14.28461,13.0731 -17.04911,13.0731 h -0.0338 c 8.68589,-5.46037 14.46469,-15.11985 14.46469,-26.1462 0,-17.066729 -13.82117,-30.90151 -30.87367,-30.90151 -1.00224,0 -1.39716,-0.09507 -2.37566,0 0.0665,0.125981 0.0635,0.122623 0.0457,0.08946 4.37553,7.78287 5.93021,19.510841 5.93021,27.06068 0,6.31326 -1.2266,10.88233 -1.2266,10.88233 a 71.250001,71.309424 0 0 0 -71.25,-71.30964 z"
   id="path836" /><path
   id="path834"
   d="M 126.509,39.863721 A 71.250001,71.309424 0 0 0 55.259001,111.17336 c 0,0 -1.22461,-4.56907 -1.22461,-10.88233 0,-7.573054 1.572686,-18.845064 5.975935,-26.627295 C 33.220328,77.167403 12.509,100.03831 12.509,127.81095 c 0,30.19241 24.459078,54.67205 54.626327,54.67205 h 59.373673 71.25 4.75133 c 20.98549,0 37.99867,-17.02946 37.99867,-38.03247 0,-10.74395 -4.4688,-20.42752 -11.63179,-27.33503 -4.2085,9.10384 -14.28461,13.0731 -17.04911,13.0731 h -0.0338 c 8.68589,-5.46037 14.46469,-15.11985 14.46469,-26.1462 0,-17.066729 -13.82117,-30.90151 -30.87367,-30.90151 -1.00224,0 -1.39716,-0.09507 -2.37566,0 0.0665,0.125981 0.0635,0.122623 0.0457,0.08946 4.37553,7.78287 5.93021,19.510841 5.93021,27.06068 0,6.31326 -1.2266,10.88233 -1.2266,10.88233 a 71.250001,71.309424 0 0 0 -71.25,-71.30964 z"
   style="fill:#000202;fill-opacity:1;stroke-width:4.75198078;opacity:0.1"
   inkscape:connector-curvature="0" /><g
   id="g2"
   transform="matrix(1.8666666,0,0,1.8682235,5.9112305,153.67095)">
</g>
<path
   style="fill:#00bcd4;stroke-width:4.66861248"
   d="M 126.20898 41.166016 A 70 70.05838 0 0 0 56.208984 111.22461 C 56.208984 111.22461 55.005859 106.7357 55.005859 100.5332 C 55.005859 93.093003 56.550954 82.018747 60.876953 74.373047 C 34.556955 77.815247 14.208984 100.28491 14.208984 127.57031 C 14.208984 157.23303 38.238955 181.2832 67.876953 181.2832 L 126.20898 181.2832 L 196.20898 181.2832 L 200.87695 181.2832 C 221.49427 181.2832 238.20898 164.5525 238.20898 143.91797 C 238.20898 133.36251 233.81858 123.84882 226.78125 117.0625 C 222.64659 126.00662 212.74725 129.90625 210.03125 129.90625 L 209.99805 129.90625 C 218.53156 124.54167 224.20898 115.05166 224.20898 104.21875 C 224.20898 87.45144 210.63028 73.859375 193.87695 73.859375 C 192.89229 73.859375 192.5043 73.765975 191.54297 73.859375 C 191.6083 73.983145 191.60535 73.979846 191.58789 73.947266 C 195.88665 81.593594 197.41406 93.115811 197.41406 100.5332 C 197.41406 106.7357 196.20898 111.22461 196.20898 111.22461 A 70 70.05838 0 0 0 126.20898 41.166016 z "
   id="path4" />

<path
   style="fill:#ffffff;stroke-width:4.66861248"
   d="m 126.20951,167.27094 c -30.879331,0 -55.999996,-25.14161 -55.999996,-56.0467 0,-30.90509 25.120665,-56.046707 55.999996,-56.046707 30.87933,0 56,25.141617 56,56.046707 0,30.90509 -25.12067,56.0467 -56,56.0467 z m 0,-102.75229 c -25.732,0 -46.666664,20.95213 -46.666664,46.70559 0,25.75346 20.934664,46.70559 46.666664,46.70559 25.732,0 46.66666,-20.95213 46.66666,-46.70559 0,-25.75346 -20.93466,-46.70559 -46.66666,-46.70559 z"
   id="path8"
   inkscape:connector-curvature="0" />
<path
   style="fill:#ffffff;stroke-width:4.66861248"
   d="m 109.87617,143.91815 c -3.86866,0 -6.99999,-3.13862 -6.99999,-7.00584 V 90.20672 c 0,-3.86722 3.13133,-7.00583 6.99999,-7.00583 h 23.33334 c 11.578,0 21,9.42985 21,21.01751 0,11.58766 -9.422,21.01751 -21,21.01751 h -16.33334 v 11.6764 c 0,3.86722 -3.13133,7.00584 -7,7.00584 z m 7,-32.69391 h 16.33334 c 3.85933,0 7,-3.14329 7,-7.00584 0,-3.86255 -3.14067,-7.00584 -7,-7.00584 h -16.33334 z"
   id="path10"
   inkscape:connector-curvature="0" />


<path
   style="fill:#fefefe;stroke-width:4.66861248;fill-opacity:1;opacity:0.3"
   d="M 126.20898 41.166016 A 70 70.05838 0 0 0 56.208984 111.22461 C 56.208984 111.22461 55.154522 107.22561 55.029297 101.58594 C 55.024229 101.89612 55.005859 102.23429 55.005859 102.5332 C 55.005859 108.7357 56.208984 113.22461 56.208984 113.22461 A 70 70.05838 0 0 1 126.20898 43.166016 A 70 70.05838 0 0 1 196.20898 113.22461 C 196.20898 113.22461 197.41406 108.7357 197.41406 102.5332 C 197.41406 102.22966 197.39583 101.8812 197.39062 101.56445 C 197.26744 107.21555 196.20898 111.22461 196.20898 111.22461 A 70 70.05838 0 0 0 126.20898 41.166016 z M 192.70117 73.824219 C 192.36093 73.812544 192.02363 73.812675 191.54297 73.859375 C 191.6083 73.983145 191.60535 73.979846 191.58789 73.947266 C 191.9264 74.549386 192.24213 75.181833 192.54688 75.828125 C 192.9345 75.837126 193.31904 75.859375 193.87695 75.859375 C 210.2494 75.859375 223.58156 88.84228 224.17969 105.08203 C 224.18777 104.79402 224.20898 104.50874 224.20898 104.21875 C 224.20898 87.45144 210.63028 73.859375 193.87695 73.859375 C 193.38462 73.859375 193.04142 73.835894 192.70117 73.824219 z M 60.876953 74.373047 C 34.556955 77.815247 14.208984 100.28491 14.208984 127.57031 C 14.208984 127.88934 14.226886 128.20378 14.232422 128.52148 C 14.740468 102.09498 34.329603 80.410907 59.773438 76.542969 C 60.12128 75.797567 60.48419 75.067211 60.876953 74.373047 z M 226.78125 117.0625 C 223.89304 123.3103 218.19828 127.08962 214.09766 128.80469 C 212.82137 129.94712 211.45485 130.99043 209.99805 131.90625 L 210.03125 131.90625 C 212.74725 131.90625 222.64659 128.00662 226.78125 119.0625 C 233.5967 125.63485 237.91715 134.76837 238.18359 144.92578 C 238.19251 144.58979 238.20898 144.25611 238.20898 143.91797 C 238.20898 133.36251 233.81858 123.84882 226.78125 117.0625 z "
   id="path823" /><path
   style="fill:#000000;stroke-width:4.66861248;fill-opacity:1;opacity:0.2"
   d="M 192.54688 73.828125 C 192.25037 73.82124 191.95961 73.818895 191.54297 73.859375 C 191.6083 73.983145 191.60535 73.979846 191.58789 73.947266 C 195.71073 81.280682 197.26873 92.141209 197.39062 99.564453 C 197.39815 99.219435 197.41406 98.890097 197.41406 98.533203 C 197.41406 91.699907 196.11213 81.389097 192.54688 73.828125 z M 60.876953 74.373047 C 60.506409 74.421508 60.141574 74.487005 59.773438 74.542969 C 56.290058 82.007616 55.005859 91.768512 55.005859 98.533203 C 55.005859 98.897536 55.021482 99.233992 55.029297 99.585938 C 55.150373 92.175326 56.724752 81.71158 60.876953 74.373047 z M 224.17969 103.08203 C 223.88583 113.55304 218.30312 122.68528 209.99805 127.90625 L 210.03125 127.90625 C 210.85002 127.90625 212.32798 127.54485 214.09766 126.80469 C 220.29749 121.25509 224.20898 113.20232 224.20898 104.21875 C 224.20898 103.83755 224.1936 103.45983 224.17969 103.08203 z M 14.232422 126.52148 C 14.225692 126.87153 14.208984 127.21864 14.208984 127.57031 C 14.208984 157.23303 38.238955 181.2832 67.876953 181.2832 L 126.20898 181.2832 L 196.20898 181.2832 L 200.87695 181.2832 C 221.49427 181.2832 238.20898 164.5525 238.20898 143.91797 C 238.20898 143.58516 238.19227 143.25646 238.18359 142.92578 C 237.64814 163.09293 221.15641 179.2832 200.87695 179.2832 L 196.20898 179.2832 L 126.20898 179.2832 L 67.876953 179.2832 C 38.557714 179.2832 14.741643 155.74364 14.232422 126.52148 z "
   id="path829" /></svg>
